X:26
T:I'll Buy Boots for Maggie
R:Polka
S:Boys of the Lough: Regrouped
M:2/4
L:1/8
K:EDor
E>F GA |Bd de|Bd/B/ AF|EF D2 |E>F GA |Bd de|Bd/B/ AF|1FE ED :|2FE E2 |
|:Be e>f |gf eA|Be e>f|gf e2 |Be e>f |gf e(B|B)d/B/ AF|FE E2 |
